X:51
T:Banish Misfortune
S:Sessions
R:Jig
O:Ireland
M:6/8
K:DMix
fed cAG|A2d cAG|F2D DED|FEF GFG|\
A3 cAG|AGA cde|
fed cAG|Add d3::\
f2d d^cd|f2g agf|e2c cBc|e2f gfe|
f2g agf|e2f gfe|fed cAG|Add d3::\
fgf efe|ded cdc|
A2A BAG|FAF GED|\
c3 cAG|AGA cde|fed cAG|Add d3:|
